resources/svg/button-o.svg

<svg xmlns="http://www.w3.org/2000/svg" viewBox="0 0 15 15" fill="none"><path d="M5.5 10V8.5M5.5 8.5V3.5C5.5 2.94772 5.94772 2.5 6.5 2.5C7.05228 2.5 7.5 2.94772 7.5 3.5V7.5H10.8529C11.7626 7.5 12.5 8.23741 12.5 9.14706V10C12.5 12.4853 10.4853 14.5 8 14.5H7.5C5.29086 14.5 3.5 12.7091 3.5 10.5C3.5 9.39543 4.39543 8.5 5.5 8.5ZM9 5.5H11C12.3807 5.5 13.5 4.38071 13.5 3C13.5 1.61929 12.3807 0.5 11 0.5H4C2.61929 0.5 1.5 1.61929 1.5 3C1.5 4.38071 2.61929 5.5 4 5.5" stroke="black"/></svg>

<svg xmlns="http://www.w3.org/2000/svg" viewBox="0 0 15 15" fill="none"><path d="M5.5 10V8.5m0 0v-5a1 1 0 012 0v4h3.353c.91 0 1.647.737 1.647 1.647V10A4.5 4.5 0 018 14.5h-.5a4 4 0 01-4-4 2 2 0 012-2zm3.5-3h2a2.5 2.5 0 000-5H4a2.5 2.5 0 000 5" stroke="currentColor"/></svg>
